flags/other/united_nations.svg

<svg width="512" height="512" viewBox="0 0 512 512" fill="none" xmlns="http://www.w3.org/2000/svg">
<rect width="512" height="512" fill="var(--flag-palette-light-blue, #338af3)"/>
<path fill-rule="evenodd" clip-rule="evenodd" d="M358.306 135.975C384.056 162.099 399.954 197.96 399.954 237.54C399.954 303.285 356.101 358.779 296.056 376.394C302.933 389.099 301.988 405.22 292.386 417.203C281.035 408.105 269.317 398.715 259.04 390.48L256.001 388.045C247.127 395.155 236.97 403.295 226.801 411.445L219.616 417.203C210.108 405.338 209.094 389.419 215.75 376.775C155.041 359.582 110.564 303.755 110.564 237.54C110.564 197.584 126.759 161.41 152.944 135.225L176.555 158.836C156.412 178.977 143.955 206.803 143.955 237.54C143.955 299.012 193.786 348.844 255.259 348.844C316.73 348.844 366.563 299.012 366.563 237.54C366.563 207.182 354.403 179.666 334.695 159.586L358.306 135.975ZM166.216 237.54C166.216 188.363 206.08 148.497 255.259 148.497C304.434 148.497 344.302 188.363 344.302 237.54C344.302 286.717 304.435 326.583 255.259 326.583C206.081 326.583 166.216 286.717 166.216 237.54ZM255.259 215.279C242.964 215.279 232.998 225.246 232.998 237.54C232.998 249.835 242.964 259.801 255.259 259.801C267.553 259.801 277.52 249.835 277.52 237.54C277.52 225.246 267.553 215.279 255.259 215.279ZM267.13 194.631C271.118 195.732 274.884 197.362 278.339 199.461L294.375 183.426C286.429 177.672 277.171 173.633 267.13 171.831V194.631ZM233.121 198.919C236.747 196.836 240.693 195.249 244.87 194.25V171.565C234.623 173.168 225.155 177.107 217.011 182.809L233.121 198.919ZM244.869 280.829C240.692 279.831 236.746 278.243 233.12 276.161L217.011 292.269C225.155 297.971 234.621 301.912 244.869 303.513V280.829ZM278.339 275.62C274.886 277.719 271.118 279.348 267.131 280.449L267.13 280.45V303.25C277.171 301.448 286.428 297.408 294.374 291.655L278.339 275.62ZM298.378 248.671C297.373 252.575 295.84 256.267 293.879 259.68L309.99 275.788C315.554 267.842 319.428 258.633 321.1 248.671H298.378ZM298.378 226.409H321.099C319.428 216.447 315.553 207.239 309.989 199.292L293.879 215.402C295.84 218.816 297.373 222.504 298.378 226.409ZM217.179 214.46L201.144 198.425C195.249 206.566 191.15 216.084 189.417 226.41H212.139C213.237 222.146 214.95 218.13 217.179 214.46ZM212.139 248.67H189.417C191.15 258.997 195.249 268.514 201.144 276.655L217.179 260.62C214.949 256.95 213.236 252.934 212.139 248.67Z" fill="var(--flag-palette-white, #eeeeee)"/>
</svg>

<svg xmlns="http://www.w3.org/2000/svg" width="512" height="512" fill="none"><g clip-path="url(#a)"><path fill="var(--flag-palette-light-blue, #338af3)" d="M0 0h512v512H0z"/><path fill="#EEE" fill-rule="evenodd" d="M358.3 136A144.8 144.8 0 0 1 296 376.4a37 37 0 0 1-3.6 40.8L259 390.5l-3-2.5-29.2 23.4-7.2 5.8a37 37 0 0 1-3.8-40.4 144.8 144.8 0 0 1-62.9-241.6l23.7 23.6a111.3 111.3 0 1 0 158.1.8zm-192 101.5a89 89 0 1 1 178 0 89 89 0 0 1-178 0m89-22.2a22.3 22.3 0 1 0 0 44.5 22.3 22.3 0 0 0 0-44.5m11.8-20.7q6 1.7 11.2 4.9l16-16a65 65 0 0 0-27.2-11.7zm-34 4.3a47 47 0 0 1 11.8-4.7v-22.6a66 66 0 0 0-27.9 11.2zm11.8 82a47 47 0 0 1-11.8-4.7l-16 16a66 66 0 0 0 27.8 11.3zm33.4-5.3a44 44 0 0 1-11.2 4.8v22.9q15.1-3 27.3-11.6l-16-16Zm20-27q-1.5 6-4.4 11l16 16.2q8.6-12.1 11.2-27.1h-22.7Zm0-22.2h22.8a66 66 0 0 0-11.1-27.1l-16.1 16.1q3 5.1 4.5 11Zm-81.1-12-16-16a66 66 0 0 0-11.8 28h22.7q1.7-6.5 5-12Zm-5 34.3h-22.8a66 66 0 0 0 11.7 28l16-16a48 48 0 0 1-5-12Z" clip-rule="evenodd"/></g><defs><clipPath id="a"><path fill="#fff" d="M0 0h512v512H0z"/></clipPath></defs></svg>
